outputs/icons/device/battery_alert_sharp.svg

<svg xmlns="http://www.w3.org/2000/svg" width="1200" height="1200" fill="none"><g clip-path="url(#a)"><path fill="#000" d="M900 200H700V100H500v100H300v900h600zM650 900H550V800h100zm0-200H550V450h100z"/></g><defs><clipPath id="a"><path fill="#fff" d="M0 0h1200v1200H0z"/></clipPath></defs></svg>

<svg width="1200" height="1200" viewBox="0 0 1200 1200" fill="none" xmlns="http://www.w3.org/2000/svg"><g clip-path="url(#clip0_133_54)"><path d="M900 200H700V100H500V200H300V1100H900V200ZM650 900H550V800H650V900ZM650 700H550V450H650V700Z" fill="#1D1E23"/></g><defs><clipPath id="clip0_133_54"><path width="24" fill="white" d="M0 0H1200V1200H0V0z"/></clipPath></defs></svg>
